X:1
T:Under the Shadow of the Cross
T:Under the Shadow of the Cross
T:David Elijah Dortch
T:E. Hanks, 1895
T:Public Domain Courtesy of the Cyber Hymnal™
T:Public Domain Courtesy of the Cyber Hymnal™
C:David Elijah Dortch
Z:Public Domain
Z:Courtesy of the Cyber Hymnal™
%%score ( 1 2 ) 3
L:1/8
Q:1/4=100
M:4/4
K:Eb
V:1 treble 
V:2 treble 
V:3 bass 
V:1
 E[EF] | [EG][E^F][EG][EA] [EG][E=F]E[EF] | [EG]4 [B,E]2 [EG][FA] | %3
w: 1.~I have|trust- ed in a Sav- ior that can|save me, I am|
w: 2.~There has|been with- in my soul a new cre-|a- tion, I am|
w: 3.~Oh, I|love to tell the sweet and won- drous|sto- ry, I am|
 [GB][GB] (3[^F=A][FA][GB] [_Ac][GB][=FA][EG] | [DF]6 E[EF] | [EG][E^F][EG][EA] [EG][E=F]E[EF] | %6
w: rest- ing un- der the sha- dow of the|cross; When I|trust- ed, oh, the bliss and joy it|
w: rest- ing un- der the sha- dow of the|cross; Bless- èd|thought, to feel the full and free sal-|
w: rest- ing un- der the sha- dow of the|cross; Of sal-|va- tion through a Sav- ior rich in|
 [EG]4 [B,E]2 [EG][FA] | [GB][GB] (3EE[EF] [EG][EG] [EG]>[DF] | E6 ||"^Refrain" (3[EG][EG][FA] | %10
w: gave me, I am|rest- ing un- der the sha- dow of the|cross.||
w: va- tion, I am|rest- ing un- der the sha- dow of the|cross.|Un- der the|
w: glo- ry, I am|rest- ing un- der the sha- dow of the|cross.||
 [GB][GB][^F=A][GB] [_Ac]2 [GB][F=A] | [GB]4 [EG]2 (3[FA][FA][EG] | %12
w: ||
w: sha- dow of the cross I am|rest- ing, Un- der the|
w: ||
 [DF][DF][DF][EG] [FA]2 [EG][DF] | [EG]4 [GB]2 (3[EG][EG][FA] | %14
w: ||
w: sha- dow of the cross I am|rest- ing, Un- der the|
w: ||
 [GB][GB][^F=A][GB] [_Ac]2 [GB][F=A] | [GB]4 !fermata![Ge]2 E[EF] | %16
w: ||
w: sha- dow of the cross I am|rest- ing, And se-|
w: ||
 [EG][EG][FA][EG] [DF]E [EG]>[DF] | E6 |] %18
w: ||
w: cure- ly Je- sus lets me there a-|bide.|
w: ||
V:2
 E x | x6 E x | x8 | x8 | x6 E x | x6 E x | x8 | x2 EE x4 | E6 || x2 | x8 | x8 | x8 | x8 | x8 | %15
 x6 E x | x5 E x2 | E6 |] %18
V:3
 [E,G,][E,A,] | [E,B,][E,=A,][E,B,][E,C] [E,B,][E,_A,][E,G,][E,A,] | [E,B,]4 [E,G,]2 [E,B,][E,B,] | %3
 [E,E][E,E] (3[E,E][E,E][E,E] [E,E][E,E][D,B,][E,B,] | [B,,B,]6 [E,G,][E,A,] | %5
 [E,B,][E,=A,][E,B,][E,C] [E,B,][E,_A,][E,G,][E,A,] | [E,B,]4 [E,G,]2 [E,B,][E,B,] | %7
 [E,E][E,E] (3[G,,B,][G,,B,][A,,C] [B,,B,][B,,B,] [B,,B,]>[B,,A,] | [E,G,]6 || %9
 (3[E,B,][E,B,][E,B,] | [E,E][E,E][E,E][E,E] [E,E]2 [E,E][E,E] | %11
 [E,E]4 [E,B,]2 (3[B,,B,][B,,B,][B,,B,] | [B,,B,][B,,B,][B,,B,][B,,B,] [B,,B,]2 [B,,B,][B,,B,] | %13
 [E,B,]4 [E,E]2 (3[E,B,][E,B,][E,B,] | [E,E][E,E][E,E][E,E] [E,E]2 [E,E][E,E] | %15
 [E,E]4 !fermata![E,B,]2 [G,,B,][A,,C] | %16
 [B,,B,][B,,B,][B,,B,][B,,B,] [B,,A,][B,,G,] [B,,B,]>[B,,A,] | [E,G,]6 |] %18

